public/images/icons/Python.svg

<svg width="198" height="198" viewBox="0 0 198 198" fill="none" xmlns="http://www.w3.org/2000/svg">
<path d="M97.3736 45.1157H53.9196C52.5525 45.1157 51.8807 44.4321 51.9043 43.065C52.1871 27.0836 46.2825 9.1575 68.4868 4.49036C87.1553 0.565715 147.687 -4.38429 146.272 28.3918C145.707 41.2854 145.66 53.8018 146.131 65.9411C146.909 84.9986 137.115 95.8532 117.739 95.6764C103.573 95.535 89.3003 95.4761 74.9218 95.4996C43.9489 95.5703 44.055 121.134 45.5046 143.762C45.5989 145.247 44.9153 146.107 43.4539 146.343C21.6032 149.879 8.37963 141.264 3.7832 120.497C-1.6618 95.9239 -0.742514 51.4093 34.4025 51.8689C58.0682 52.1754 79.0703 52.2107 97.4089 51.975C97.689 51.9706 97.9654 51.9099 98.2215 51.7963C98.4776 51.6828 98.7083 51.5189 98.8997 51.3143C99.0911 51.1097 99.2393 50.8687 99.3355 50.6056C99.4317 50.3424 99.4739 50.0626 99.4596 49.7829L99.3182 46.9896C99.2475 45.7404 98.5993 45.1157 97.3736 45.1157ZM80.5082 24.9975C80.5082 22.7563 79.6179 20.6069 78.0331 19.0222C76.4484 17.4374 74.299 16.5471 72.0578 16.5471C69.8167 16.5471 67.6673 17.4374 66.0825 19.0222C64.4978 20.6069 63.6075 22.7563 63.6075 24.9975C63.6075 27.2387 64.4978 29.3881 66.0825 30.9728C67.6673 32.5576 69.8167 33.4479 72.0578 33.4479C74.299 33.4479 76.4484 32.5576 78.0331 30.9728C79.6179 29.3881 80.5082 27.2387 80.5082 24.9975Z" fill="#388ED0"/>
<path d="M101.015 152.036H144.08C145.448 152.036 146.119 152.707 146.096 154.051C146.025 161.5 146.084 169.101 146.272 176.856C146.838 199.732 93.0246 196.268 77.8564 193.686C66.33 191.706 52.0811 184.635 52.0104 170.74C51.9396 158.318 51.8689 144.446 51.7982 129.124C51.7628 113.284 60.2486 102.288 76.4775 101.793C91.7282 101.345 106.342 101.298 120.32 101.652C153.839 102.536 153.874 78.2807 152.531 52.965C152.46 51.3857 153.202 50.5607 154.758 50.49C165.33 49.9243 177.069 49.2525 184.706 57.6321C198.884 73.1539 198.566 102.571 193.757 121.275C190.115 135.489 179.685 145.389 164.517 145.247C140.073 144.988 118.835 144.964 100.803 145.176C99.0825 145.2 98.2811 146.06 98.3989 147.758L98.505 149.631C98.5412 150.281 98.8216 150.893 99.2885 151.34C99.7554 151.787 100.373 152.036 101.015 152.036ZM134.251 172.401C134.251 170.17 133.364 168.029 131.786 166.451C130.208 164.873 128.068 163.986 125.836 163.986C123.604 163.986 121.464 164.873 119.886 166.451C118.308 168.029 117.421 170.17 117.421 172.401C117.421 174.633 118.308 176.774 119.886 178.352C121.464 179.93 123.604 180.816 125.836 180.816C128.068 180.816 130.208 179.93 131.786 178.352C133.364 176.774 134.251 174.633 134.251 172.401Z" fill="#FFE973"/>
</svg>

<svg width="198" height="198" fill="none" xmlns="http://www.w3.org/2000/svg"><path d="M97.374 45.116H53.92c-1.367 0-2.04-.684-2.016-2.051.283-15.981-5.622-33.907 16.583-38.575 18.668-3.924 79.2-8.874 77.785 23.902-.565 12.893-.612 25.41-.141 37.55.778 19.057-9.016 29.911-28.392 29.734-14.166-.141-28.439-.2-42.817-.176-30.973.07-30.867 25.634-29.417 48.262.094 1.485-.59 2.345-2.051 2.581-21.85 3.536-35.074-5.079-39.67-25.846-5.446-24.573-4.527-69.088 30.619-68.628 23.665.306 44.667.342 63.006.106a2.085 2.085 0 0 0 2.05-2.192l-.14-2.793c-.072-1.25-.72-1.874-1.945-1.874ZM80.508 24.997a8.45 8.45 0 1 0-16.9 0 8.45 8.45 0 0 0 16.9 0Z" fill="#388ED0"/><path d="M101.015 152.036h43.065c1.368 0 2.039.671 2.016 2.015-.071 7.449-.012 15.05.176 22.805.566 22.876-53.247 19.412-68.416 16.83-11.526-1.98-25.775-9.051-25.846-22.946-.07-12.422-.141-26.294-.212-41.616-.035-15.84 8.45-26.836 24.68-27.331 15.25-.448 29.864-.495 43.842-.141 33.519.884 33.554-23.371 32.211-48.687-.071-1.58.671-2.404 2.227-2.475 10.572-.566 22.311-1.238 29.948 7.142 14.178 15.522 13.86 44.939 9.051 63.643-3.642 14.214-14.072 24.114-29.24 23.972-24.444-.259-45.682-.283-63.714-.071-1.72.024-2.522.884-2.404 2.582l.106 1.873c.036.65.317 1.262.784 1.709a2.496 2.496 0 0 0 1.726.696Zm33.236 20.365a8.416 8.416 0 0 0-14.365-5.95 8.416 8.416 0 0 0 5.95 14.365 8.414 8.414 0 0 0 8.415-8.415Z" fill="#FFE973"/></svg>
